public/illustrations/_chart.svg

<svg width="200" height="140" viewBox="0 0 200 140" fill="none" xmlns="http://www.w3.org/2000/svg">
<path d="M195.756 12.5228C196.974 12.9051 197.965 13.4997 198.673 14.604C199.409 15.5668 199.791 16.7278 199.819 18.0728C199.947 20.0409 199.904 22.1081 199.862 24.1611C199.012 50.8642 198.191 77.4399 197.214 104.115C196.917 113.219 196.619 122.309 196.237 131.229C196.166 131.951 196.053 132.8 195.968 133.522C195.558 137.246 193.844 138.945 189.951 139.072C185.165 139.228 180.28 139.2 175.438 139.03C153.889 138.733 132.339 138.449 110.705 137.968L9.18718 136.496C8.02617 136.425 6.80853 136.495 5.83158 136.34C5.06702 136.396 4.40161 136.198 3.5804 135.943C2.7592 135.688 2.30604 135.25 1.72554 134.768C1.14503 134.287 0.762783 133.579 0.522086 132.913C0.281389 132.248 0.083154 131.441 0.153947 130.733C-0.0301152 128.453 -0.0301256 126.075 0.0548263 123.88C0.295524 95.7893 0.493804 67.8404 0.734501 39.7639C0.84777 32.6846 1.0035 25.4777 0.989346 18.3559C0.975188 15.5384 1.49906 12.8767 0.904398 10.0308C0.366369 7.93537 1.15925 5.37261 1.9663 3.24882C2.80166 0.54453 5.25107 -0.177586 7.85626 0.0347932C11.6225 0.317965 15.5303 0.62962 19.2965 0.912792L192.315 12.1972C193.434 12.3954 194.567 12.5937 195.728 12.6645L195.77 12.5228H195.756ZM10.6172 126.131C11.6083 126.287 12.1888 126.315 12.6419 126.315L106.811 127.59L183.367 128.751C184.259 128.737 185.193 128.581 186.27 128.467C187.416 92.6603 188.705 57.3488 189.738 21.9381L10.6172 10.2431C10.6455 11.5882 10.6172 12.6218 10.6456 13.5138C10.8155 14.9013 10.9712 16.2891 10.9995 17.62C10.773 52.3794 10.6313 87.3083 10.4048 122.068C10.4331 123.413 10.504 124.616 10.6314 126.131H10.6172Z" fill="#102185"/>
<path d="M68.3566 60.7046L32.2095 109.991C43.7771 110.458 55.0616 110.387 66.431 110.5C66.3035 108.985 66.1053 107.725 66.1619 106.564C66.0487 103.124 67.5071 100.759 70.0131 100.349C73.0006 99.7965 75.5067 101.75 76.2146 105.233C76.427 106.932 76.611 108.759 76.5119 110.514C87.3575 110.911 98.288 111.024 109.119 110.968C109.034 109.311 108.879 107.923 108.85 106.578C108.78 105.375 109.162 104.157 109.898 103.195C110.634 102.232 111.739 101.538 112.857 101.297C114.103 101.085 115.462 101.51 116.454 102.119C117.544 102.897 118.238 104.001 118.62 105.162C119.059 107.074 119.328 109.084 119.554 111.237L156.296 111.789C156.494 110.67 156.565 109.495 156.848 108.547C157.131 107.598 157.57 106.692 158.406 105.913C159.199 105.262 160.218 104.837 161.252 104.865C162.285 104.894 163.276 105.049 164.097 105.743C164.961 106.31 165.598 107.102 166.023 108.122C167.085 111.407 167.34 114.904 166.688 118.401C166.249 120.78 164.565 121.898 161.974 122.124C160.317 122.209 158.66 122.28 156.919 122.195L32.8749 120.284C31.4024 120.284 29.8733 120.397 28.2168 120.468C24.4647 120.638 22.7799 119.378 22.3268 115.541C21.8171 110.939 21.8171 106.196 22.2418 101.439C23.1905 89.2767 23.7285 77.0009 24.2665 64.7113C24.663 56.2444 24.6629 47.6361 24.9603 38.9852C24.9603 37.5127 25.0735 36.2102 25.3567 34.8085C25.8239 31.3963 27.6221 29.8813 31.0201 29.8955C32.9457 29.8955 34.9138 29.7681 36.7969 29.8955C37.9579 29.9663 39.0906 30.1644 40.1667 30.4901C41.1153 30.7874 41.979 31.3398 42.4887 32.0902C43.1258 32.883 43.4231 33.8598 43.4373 34.7518C43.5931 35.6863 43.2532 36.7764 42.7294 37.4985C42.163 38.3622 41.3702 38.9994 40.5348 39.3392C38.8924 39.863 37.0518 40.0473 34.9705 40.5853L34.6873 56.3578C36.2589 56.5419 37.6889 56.6975 38.949 56.9382C40.0676 57.1364 41.1153 57.6038 42.0214 58.4816C42.8002 59.317 43.1824 60.478 43.2532 61.6815C43.324 62.885 42.8143 64.0602 41.9365 64.9806C41.0587 65.9009 39.9968 66.453 38.7508 66.6653C37.5048 66.8777 36.1597 66.906 34.6448 67.0193L33.7528 88.0871L34.4324 88.2997C37.2642 84.8733 40.195 81.6308 42.8993 78.1761C49.214 69.7518 55.2456 61.2425 61.4188 52.7898C62.6365 50.7935 64.4346 49.2786 66.7 48.6415C70.7494 47.5229 72.6466 48.1036 74.827 51.6007C77.7012 56.2023 80.448 60.7472 83.3222 65.3487L93.9554 82.7213L97.4526 79.0683C99.5056 76.7463 101.516 74.5516 103.711 72.2579C106.911 69.1006 109.955 68.86 113.508 71.7342C115.519 73.3908 117.218 75.5426 119.144 77.4824C119.823 78.1337 120.475 78.9266 121.48 79.9885L147.957 49.4908C147.149 49.2359 146.385 49.3068 145.535 49.1793C143.978 49.4342 142.449 49.5616 140.976 49.5475C139.815 49.4767 138.81 48.8821 137.989 48.1741C137.21 47.3388 136.644 46.277 136.403 45.1585C136.332 43.955 136.672 42.8648 137.408 41.9161C138.017 40.9109 138.98 40.1744 140.098 39.9337C140.906 39.7355 141.529 39.6366 142.321 39.4384C147.461 38.6597 152.728 37.9092 157.811 37.2721C159.014 37.2013 160.048 37.2296 161.209 37.2863C162.243 37.3146 163.191 37.5979 163.913 38.1217C164.635 38.6456 165.244 39.5657 165.57 40.4152C166.193 42.2417 166.504 44.1106 166.363 45.9937C165.91 51.7845 165.046 57.4481 164.324 63.1399C164.168 64.131 164.012 65.1219 163.545 66.1555C163.163 67.3731 162.427 68.3359 161.322 69.0297C160.36 69.766 159.099 69.9785 157.938 69.9077C156.862 69.5679 155.815 69.1007 155.078 68.1379C154.342 67.1751 153.917 66.1416 153.974 64.9806C153.974 63.055 154.257 61.2141 154.285 58.708C153.054 59.8124 152.176 60.7187 151.298 61.639C143.992 69.9076 136.516 78.2611 129.182 86.6571C128.488 87.4783 127.611 88.3987 126.903 89.2199C123.405 93.3259 119.498 92.5615 116.34 89.3616C114.641 87.6484 112.999 85.8078 111.3 84.0947C110.663 83.3018 109.827 82.6078 108.921 81.7299C107.165 83.5564 105.594 85.2982 103.881 86.9831C102.564 88.3565 101.247 89.7295 100.03 91.2728C98.0615 93.3258 95.4421 94.6004 92.582 94.742C89.991 94.9827 88.391 93.4391 87.1309 91.2728C84.5823 87.0677 81.8922 82.8346 79.2445 78.4596L69.5884 62.7292C69.1353 62.2903 68.7105 61.7239 68.0734 60.931L68.2857 60.7046H68.3566Z" fill="#102185"/>
</svg>

<svg xmlns="http://www.w3.org/2000/svg" width="200" height="140" fill="none" viewBox="0 0 200 140"><path fill="#102185" d="M195.756 12.523c1.218.382 2.209.977 2.917 2.081.736.963 1.118 2.124 1.146 3.469.128 1.968.085 4.035.043 6.088-.85 26.703-1.671 53.279-2.648 79.954-.297 9.104-.595 18.194-.977 27.114-.071.722-.184 1.571-.269 2.293-.41 3.724-2.124 5.423-6.017 5.55-4.786.156-9.671.128-14.513-.042-21.549-.297-43.099-.581-64.733-1.062L9.187 136.496c-1.16-.071-2.378-.001-3.355-.156-.765.056-1.43-.142-2.252-.397-.82-.255-1.274-.693-1.854-1.175-.581-.481-.963-1.189-1.204-1.855-.24-.665-.439-1.472-.368-2.18-.184-2.28-.184-4.658-.1-6.853.242-28.09.44-56.04.68-84.116.114-7.08.27-14.286.255-21.408-.014-2.818.51-5.48-.085-8.325-.538-2.096.255-4.658 1.062-6.782C2.802.545 5.251-.178 7.856.035c3.767.283 7.674.595 11.44.878l173.019 11.284c1.119.198 2.252.397 3.413.468l.042-.142zM10.617 126.13c.991.156 1.572.184 2.025.184l94.169 1.275 76.556 1.161c.892-.014 1.826-.17 2.903-.284 1.146-35.807 2.435-71.118 3.468-106.529L10.618 10.243c.027 1.345 0 2.379.028 3.27.17 1.388.325 2.776.353 4.107-.226 34.76-.368 69.688-.594 104.448.028 1.345.099 2.548.226 4.063z"/><path fill="#102185" d="M68.357 60.705 32.21 109.99c11.567.467 22.852.396 34.221.509-.127-1.515-.326-2.775-.27-3.936-.112-3.44 1.346-5.805 3.852-6.215 2.988-.553 5.494 1.401 6.202 4.884.212 1.699.396 3.526.297 5.281 10.846.397 21.776.51 32.607.454-.085-1.657-.24-3.045-.269-4.39a5.13 5.13 0 0 1 1.048-3.383c.736-.963 1.841-1.657 2.959-1.898 1.246-.212 2.605.213 3.597.822 1.09.778 1.784 1.882 2.166 3.043.439 1.912.708 3.922.934 6.075l36.742.552c.198-1.119.269-2.294.552-3.242.283-.949.722-1.855 1.558-2.634.793-.651 1.812-1.076 2.846-1.048 1.033.029 2.024.184 2.845.878.864.567 1.501 1.359 1.926 2.379a20.84 20.84 0 0 1 .665 10.279c-.439 2.379-2.123 3.497-4.714 3.723-1.657.085-3.314.156-5.055.071l-124.044-1.911c-1.473 0-3.002.113-4.658.184-3.752.17-5.437-1.09-5.89-4.927-.51-4.602-.51-9.345-.085-14.102.948-12.162 1.486-24.438 2.024-36.728.397-8.467.397-17.075.694-25.726 0-1.472.113-2.775.397-4.176.467-3.413 2.265-4.928 5.663-4.913 1.926 0 3.894-.128 5.777 0 1.16.07 2.294.268 3.37.594.948.297 1.812.85 2.322 1.6.637.793.934 1.77.948 2.662.156.934-.184 2.024-.708 2.746-.566.864-1.359 1.501-2.194 1.841-1.643.524-3.483.708-5.564 1.246l-.284 15.773c1.572.184 3.002.34 4.262.58 1.119.198 2.166.666 3.072 1.544.78.835 1.161 1.996 1.232 3.2.071 1.203-.439 2.378-1.316 3.299-.878.92-1.94 1.472-3.186 1.684-1.246.213-2.591.241-4.106.354l-.892 21.068.68.213c2.831-3.427 5.762-6.67 8.466-10.124 6.315-8.424 12.347-16.934 18.52-25.386 1.218-1.996 3.016-3.511 5.281-4.148 4.05-1.12 5.947-.538 8.127 2.959 2.874 4.601 5.621 9.146 8.495 13.748L93.955 82.72l3.498-3.653a231 231 0 0 1 6.258-6.81c3.2-3.157 6.244-3.398 9.797-.524 2.011 1.657 3.71 3.809 5.636 5.748.679.652 1.331 1.445 2.336 2.507l26.477-30.498c-.808-.255-1.572-.184-2.422-.312a26.7 26.7 0 0 1-4.559.368c-1.161-.07-2.166-.665-2.987-1.373a6.5 6.5 0 0 1-1.586-3.016 4.7 4.7 0 0 1 1.005-3.242c.609-1.005 1.572-1.742 2.69-1.982.808-.198 1.431-.297 2.223-.496 5.14-.778 10.407-1.529 15.49-2.166 1.203-.07 2.237-.042 3.398.014 1.034.029 1.982.312 2.704.836s1.331 1.444 1.657 2.293c.623 1.827.934 3.696.793 5.579-.453 5.79-1.317 11.454-2.039 17.146-.156.991-.312 1.982-.779 3.016a5.1 5.1 0 0 1-2.223 2.874c-.962.736-2.223.948-3.384.878-1.076-.34-2.123-.807-2.86-1.77s-1.161-1.996-1.104-3.157c0-1.926.283-3.767.311-6.273-1.231 1.104-2.109 2.01-2.987 2.931-7.306 8.269-14.782 16.622-22.116 25.018-.694.821-1.571 1.742-2.279 2.563-3.498 4.106-7.405 3.341-10.563.142-1.699-1.714-3.341-3.554-5.04-5.267-.637-.793-1.473-1.487-2.379-2.365-1.756 1.826-3.327 3.568-5.04 5.253-1.317 1.373-2.634 2.746-3.851 4.29-1.969 2.053-4.588 3.327-7.448 3.469-2.591.24-4.191-1.303-5.451-3.47-2.549-4.204-5.239-8.437-7.886-12.812l-9.657-15.73c-.453-.44-.877-1.006-1.515-1.799l.213-.226z"/></svg>
